X:1
T:Title
%%score { ( 1 3 ) | 2 }
L:1/8
Q:1/4=96
M:4/4
K:F
V:1 treble nm="Grand Piano"
V:3 treble 
V:2 bass 
V:1
 F2 FG AAAB | cccd c2 A2 | F2 FG AAA[GB] | [Ac][FA][EG][EB] [EA]2 [EG]2 | F2 FG AAAB | %5
w: J.~M.~Black * * * * * *|||||
 cc=Bc [Fe]2 [Fd]2 | [Fd]2 [DFB][Fd] [Fc]2 [CFA]2 | [B,EG]3 [A,CF] [A,CF]4 | %8
w: |||
 [A,FA]2 [A,FA]2 [A,FA][A,FA] [A,FA]2 | [^CA][CA][CG][CB] [CA]2 [CG]2 | F2 z2 z4 | A6 z2 | %12
w: ||||
 B2 B2 BB B2 | [EB][EB][EA][EG] [FA]2 [Fc]2 | [Fd]2 [DFB][Fd] [Fc]2 [FA]2 | [EG]3 F F4 |] %16
w: ||||
V:2
 [F,A,C]2 [F,A,C][F,B,C] [F,CF][F,CF][K:treble][F,CF][G,CE] | %1
 [A,CF][A,CF][A,CF][B,CF] [A,CF]2[K:bass] [F,CF]2 | %2
 [F,A,C]2 [F,A,C][F,B,C] [F,CF][F,CF][F,CF][F,C] | [C,C][C,C][C,C][C,C] [C,C]2 [C,B,]2 | %4
 [F,A,C]2 [F,A,C][F,B,C] [F,CF][F,CF][F,CF][F,B,F] | %5
 [F,A,F][F,A,F][F,_A,F][F,=A,F] [B,,B,]2 [B,,B,]2 | [B,,B,]2 B,,[B,,B,] [C,A,]2 C,2 | C,3 F, F,4 | %8
 D,2 D,2 D,D, D,2 | [A,,A,][A,,A,][A,,E,][A,,E,] [A,,E,]2 [A,,E,]2 | %10
 .[D,F,D]2 [D,A,D][D,A,D] [C,C][C,C][D,A,][C,C] | [F,CF]6 z2 | %12
 [G,CE]2 [G,CE]2 [G,CE][G,CE] [G,CE]2 | [C,C][C,C][C,C][C,C] [F,C]2 [F,A,]2 | %14
 [B,,B,]2 B,,[B,,B,] [C,A,]2 [C,C]2 | [C,B,]3 [F,A,C] [F,A,C]4 |] %16
V:3
 x8 | x8 | x8 | x8 | x8 | x8 | x8 | x8 | x8 | x8 | z A,FF [EG][EG][DF][EG] | x8 | x8 | x8 | x8 | %15
 x8 |] %16

